build/images/content/main/isium.svg

<svg width="619" height="184" viewBox="0 0 619 184" fill="none" xmlns="http://www.w3.org/2000/svg">
<path d="M0 180.705H29.1686V3.29477H0V180.705Z" fill="#00BBD3"/>
<path d="M123.806 184C142.575 184 157.794 179.438 169.207 170.061C180.875 160.683 186.709 147.758 186.709 131.791C187.977 114.81 177.831 102.645 168.447 95.2948C165.657 93.0138 161.345 90.4793 155.511 88.1983C149.931 85.9174 145.619 84.1432 142.322 83.1295C139.278 81.8623 134.459 80.3416 127.611 78.0606C100.471 69.697 91.8473 63.6143 91.8473 50.4353C91.8473 37.0028 102.754 28.3857 119.748 28.3857C137.249 28.3857 149.677 36.7493 157.033 53.2231L181.636 39.0303C170.222 14.6997 148.155 0 119.748 0C104.022 0 90.5791 4.56199 79.419 13.9394C68.2588 23.0634 62.6788 35.4821 62.6788 51.1956C62.6788 67.1625 68.5125 78.8209 79.9263 86.9311C91.8473 94.7879 100.217 98.0826 117.211 103.152C132.176 107.714 142.829 112.022 148.663 115.824C154.496 119.625 157.54 124.948 157.54 132.298C157.54 146.237 146.634 155.614 124.567 155.614C102.247 155.614 87.5355 145.73 80.4335 125.708L55.3232 140.408C64.7079 167.526 89.5646 184 123.806 184Z" fill="#00BBD3"/>
<path d="M213.137 180.705H242.305V3.29477H213.137V180.705Z" fill="#00BBD3"/>
<path d="M278.546 121.906C278.546 140.915 284.887 155.868 297.315 167.273C309.744 178.424 325.977 184 345.761 184C365.544 184 381.777 178.424 394.206 167.273C406.634 155.868 412.975 140.915 412.975 121.906V3.29477H383.807V120.132C383.807 141.675 371.125 155.614 345.761 155.614C320.397 155.614 307.715 141.675 307.715 120.132V3.29477H278.546V121.906Z" fill="#00BBD3"/>
<path d="M587.802 3.29477L534.031 92L480.513 3.29477H449.061V180.705H478.23V53.9835L532.255 143.449H535.806L589.831 54.2369V180.705H619V3.29477H587.802Z" fill="#00BBD3"/>
</svg>

<svg width="619" height="184" fill="none" xmlns="http://www.w3.org/2000/svg"><path d="M0 180.705h29.169V3.295H0v177.41zM123.806 184c18.769 0 33.988-4.562 45.401-13.939 11.668-9.378 17.502-22.303 17.502-38.27 1.268-16.981-8.878-29.146-18.262-36.496-2.79-2.281-7.102-4.816-12.936-7.097-5.58-2.28-9.892-4.055-13.189-5.069-3.044-1.267-7.863-2.787-14.711-5.068-27.14-8.364-35.764-14.447-35.764-27.626 0-13.432 10.907-22.05 27.901-22.05 17.501 0 29.929 8.364 37.285 24.838l24.603-14.193C170.222 14.7 148.155 0 119.748 0c-15.726 0-29.169 4.562-40.329 13.94-11.16 9.123-16.74 21.542-16.74 37.256 0 15.966 5.834 27.625 17.247 35.735 11.921 7.857 20.291 11.152 37.285 16.221 14.965 4.562 25.618 8.87 31.452 12.672 5.833 3.801 8.877 9.124 8.877 16.474 0 13.939-10.906 23.316-32.973 23.316-22.32 0-37.031-9.884-44.133-29.906l-25.11 14.7C64.707 167.526 89.563 184 123.805 184zm89.331-3.295h29.168V3.295h-29.168v177.41zm65.409-58.799c0 19.009 6.341 33.962 18.769 45.367C309.744 178.424 325.977 184 345.761 184c19.783 0 36.016-5.576 48.445-16.727 12.428-11.405 18.769-26.358 18.769-45.367V3.295h-29.168v116.837c0 21.543-12.682 35.482-38.046 35.482-25.364 0-38.046-13.939-38.046-35.482V3.295h-29.169v118.611zM587.802 3.295L534.031 92 480.513 3.295h-31.452v177.41h29.169V53.983l54.025 89.466h3.551l54.025-89.212v126.468H619V3.295h-31.198z" fill="#00BBD3"/></svg>
